X:590
T:Liz's Hope
C:Colin Hume, 2020
L:1/4
M:2/2
R:Reel
S:Colin Hume's website,  colinhume.com  - chords can also be printed below the stave.
Q:1/2=112
K:C
P:A
|: G | "C"c>G cd | "C/E"ed cB | "F"A>B cA | "G"G3 F | "C"EG cG | "F"AF "D7/F#"dc | "G"BG "D7"A^F | "G"G3 :|
P:B
|: c | "G"Bd GB | "C"ce Gc | "G"Bd GB | "C"c3 B | "F"A>B cA | "C/E"Gc "Dm"CF | "C/G"E>D "G7"CB, | "C"C3 :|

